X: 39869
T: This Is My Love, Do You Like Her?
R: jig
M: 6/8
K: Ddorian
A,|D>ED DCA,|F3 F2G|A>BA AGE|c3 A2d|c2A AGF|
G3 GEC|1 F2D ECA,|F2D ECA,:|2 F2D ECA,|F3 D2c||
d3 dcA|c3 cAc|d3 dcA|cAG A2d|
c2A AGF|G3 GEC|F2D ECA,|F2D EGc|
d3 dcA|c3 cfe|d3 dcA|cAG A2d|
c2A AGF|G3 GEC|F2D ECA,|F3 D2A,||

